X: 5
%%leftmargin     1.80cm
%%staffwidth     18.0cm
T: Medway Jigs II, The
I: Medway Jigs II, The	J-43	G	jig
C: Paul Milde  1994
M: 6/8
R: jig
K: G
"G"BAG BAG| BAG d2G| B2G "C"AGE| "D"D3 C3|"G"B,CD D2G| D2E G2A| B2d dcB| "D"(A3 A2)G|
"G"BAG BAG| BAG d2G| B2G "C"AGE| "D"D3 C3|"G"B,CD D2E| D2E G2 A| "D"B2B AGA| "G"(G3 G2) |]
d| "G"Bcd dcB| "C"c2d g2d| "G"Bcd e2d| "C"c2B "D"A3|   "G"B2c dcB| "D"A2B c2A| "Em"GAB BAG| "D"A2F "G"G2d|
   "G"Bcd dcB| "C"c2d g2d| "G"Bcd e2d| "C"c2B "D"A3|   "G"Bcd "D"c2A| "G"B2G "D"ABc| ABc "G"B2G| "D"A2F "G"G3|]
%%text Roaring Jelly  J-43

#include "RightHeader.h"
% ---------- set 35 ----------
% Lassies of Dunse (D) / Lads of Dunse (D) / Handsome Young Maids (A)
%%text Set 35
%%vskip -1cm
